icons/desktop/16/svg/book-16.svg

<svg width="16" height="16" viewBox="0 0 16 16" fill="none" xmlns="http://www.w3.org/2000/svg">
<path d="M9.75 7.5C10.1642 7.5 10.5 7.83579 10.5 8.25C10.5 8.66421 10.1642 9 9.75 9H5.25C4.83579 9 4.5 8.66421 4.5 8.25C4.5 7.83579 4.83579 7.5 5.25 7.5H9.75Z" fill="black"/>
<path d="M9.75 4.5C10.1642 4.5 10.5 4.83579 10.5 5.25C10.5 5.66421 10.1642 6 9.75 6H5.25C4.83579 6 4.5 5.66421 4.5 5.25C4.5 4.83579 4.83579 4.5 5.25 4.5H9.75Z" fill="black"/>
<path fill-rule="evenodd" clip-rule="evenodd" d="M7.5 1C8.70225 1 10.0776 1.06306 11.5859 1.24609C12.9666 1.41316 13.9998 2.59662 14 3.97852V10.248C14 10.8357 13.8139 11.3791 13.5 11.8262V14.0303C13.5418 14.0234 13.584 14.0178 13.626 14.0107C14.0344 13.9422 14.4207 14.2175 14.4893 14.626C14.5578 15.0344 14.2825 15.4207 13.874 15.4893C11.5703 15.8761 9.49633 16 7.75 16C5.92913 16 4.27175 15.8649 2.81348 15.6689C1.77228 15.5285 1 14.6419 1 13.5938C1 13.5745 1.00241 13.5553 1.00293 13.5361C1.00157 13.5177 1.00001 13.4992 1 13.4805V3.97559C1.00021 2.56453 2.06262 1.40702 3.44531 1.24219C4.66684 1.09603 6.02558 1 7.5 1ZM12 12.8916C11.7618 12.9587 11.5111 12.9972 11.251 12.9971L3.09082 13.0029C2.76516 13.0021 2.50013 13.2657 2.5 13.5938C2.5 13.8933 2.71832 14.1427 3.0127 14.1826C4.41235 14.3707 6.00299 14.5 7.75 14.5C9.00378 14.5 10.4336 14.4339 12 14.2451V12.8916ZM7.5 2.5C6.44289 2.5 5.44783 2.55189 4.52344 2.63672L3.62305 2.73145C2.97601 2.80858 2.50021 3.34301 2.5 3.97559V11.5879C2.68794 11.5327 2.88676 11.5026 3.09277 11.5029L11.251 11.498C11.9407 11.4985 12.5 10.9401 12.5 10.248V3.97852C12.4998 3.34693 12.0251 2.81039 11.4062 2.73535C9.96496 2.56046 8.64953 2.5 7.5 2.5Z" fill="black"/>
</svg>

<!-- This Source Code Form is subject to the terms of the Mozilla Public
   - License, v. 2.0. If a copy of the MPL was not distributed with this
   - file, You can obtain one at http://mozilla.org/MPL/2.0/. -->
<svg xmlns="http://www.w3.org/2000/svg" width="16" height="16" fill="context-fill" fill-opacity="context-fill-opacity" viewBox="0 0 16 16">
    <path d="M9.75 7.5a.75.75 0 0 1 0 1.5h-4.5a.75.75 0 0 1 0-1.5zM9.75 4.5a.75.75 0 0 1 0 1.5h-4.5a.75.75 0 0 1 0-1.5z" />
    <path fill-rule="evenodd" d="M7.5 1c1.202 0 2.578.063 4.086.246A2.755 2.755 0 0 1 14 3.98v6.269c0 .588-.186 1.131-.5 1.578v2.204q.063-.01.126-.02a.75.75 0 1 1 .248 1.48 37 37 0 0 1-11.06.179A2.09 2.09 0 0 1 1 13.594q0-.03.003-.058Q1 13.51 1 13.48V3.976a2.76 2.76 0 0 1 2.445-2.734A34 34 0 0 1 7.5 1M12 12.892a2.8 2.8 0 0 1-.749.105l-8.16.006a.59.59 0 0 0-.591.59c0 .3.218.55.513.59a35.6 35.6 0 0 0 8.987.062zM7.5 2.5c-1.057 0-2.052.052-2.977.137l-.9.094A1.26 1.26 0 0 0 2.5 3.976v7.612a2 2 0 0 1 .593-.085l8.158-.005c.69 0 1.249-.558 1.249-1.25v-6.27c0-.631-.475-1.168-1.094-1.243A32 32 0 0 0 7.5 2.5" clip-rule="evenodd" />
</svg>
